Newaita-dark/apps/16/terminator.svg

<svg height="16" viewBox="0 0 16 16" width="16" xmlns="http://www.w3.org/2000/svg" xmlns:xlink="http://www.w3.org/1999/xlink"><linearGradient id="a" gradientUnits="userSpaceOnUse" x1="7.607496" x2="7.607496" y1="14.0169675" y2="14.67848950002"><stop offset="0" stop-opacity=".27451"/><stop offset="1" stop-opacity="0"/></linearGradient><linearGradient id="b"><stop offset="0" stop-opacity=".313726"/><stop offset=".222222" stop-opacity=".27451"/><stop offset="1" stop-opacity="0"/></linearGradient><radialGradient id="c" cx="450.908936" cy="189.579361" gradientTransform="matrix(.00000009 -.0390662 -.0703192 -.00000005 26.726844 31.797666)" gradientUnits="userSpaceOnUse" r="21.166656" xlink:href="#b"/><radialGradient id="d" cx="450.908936" cy="189.579361" gradientTransform="matrix(-.00000009 .0390662 .0703192 .00000005 -10.850327 -3.763739)" gradientUnits="userSpaceOnUse" r="21.166656" xlink:href="#b"/><radialGradient id="e" cx="450.908936" cy="189.579361" gradientTransform="matrix(-.00000009 -.0390662 .0703192 -.00000005 -10.850327 31.797666)" gradientUnits="userSpaceOnUse" r="21.166656" xlink:href="#b"/><radialGradient id="f" cx="450.908936" cy="189.579361" gradientTransform="matrix(.00000009 .0390662 -.0703192 .00000005 26.726843 -3.76374)" gradientUnits="userSpaceOnUse" r="21.166656" xlink:href="#b"/><linearGradient id="g" gradientTransform="matrix(.0360368 0 0 .0953132 -2.454603 15.588246)" gradientUnits="userSpaceOnUse" x1="307.62677" x2="305.954529" y1="-22.391003" y2="-141.414581"><stop offset="0" stop-color="#424242"/><stop offset="1" stop-color="#616161"/></linearGradient><linearGradient id="h"><stop offset="0" stop-color="#ef5350"/><stop offset="1" stop-color="#e57373"/></linearGradient><linearGradient id="i" gradientTransform="matrix(-.0360368 0 0 .0953132 18.331119 15.588246)" gradientUnits="userSpaceOnUse" x1="306.752686" x2="305.954529" xlink:href="#h" y1="-16.485477" y2="-141.414581"/><linearGradient id="j"><stop offset="0" stop-color="#f44336"/><stop offset="1" stop-color="#ef5350"/></linearGradient><linearGradient id="k" gradientTransform="matrix(.0360368 0 0 .0953131 -2.454603 15.588245)" gradientUnits="userSpaceOnUse" x1="306.752686" x2="305.954529" xlink:href="#j" y1="-16.485477" y2="-141.414581"/><linearGradient id="l" gradientTransform="matrix(.0360368 0 0 -.0953132 -2.454603 .538286)" gradientUnits="userSpaceOnUse" x1="251.682175" x2="251.682175" xlink:href="#h" y1="-141.414673" y2="-16.485561"/><linearGradient id="m" gradientTransform="matrix(-.0360368 0 0 -.0953132 18.331119 .538286)" gradientUnits="userSpaceOnUse" x1="260.860596" x2="260.860596" xlink:href="#j" y1="-141.414673" y2="-16.485558"/><path d="m2.316406 14.054688h11.246094v.625h-11.246094zm0 0" fill="url(#a)"/><path d="m13.5625 14.015625h1.320312v-.660156h-1.320312zm0 0" fill="url(#c)"/><path d="m2.316406 14.015625h-1.324218v.664063h1.324218zm0 0" fill="url(#d)"/><path d="m2.316406 14.015625h-1.324218v-.660156h1.324218zm0 0" fill="url(#e)"/><path d="m13.5625 14.015625h1.320312v.664063h-1.320312zm0 0" fill="url(#f)"/><path d="m1.652344 2.109375h12.570312c.367188 0 .660156.28125.660156.625v10.65625c0 .347656-.292968.625-.660156.625h-12.570312c-.363282 0-.660156-.277344-.660156-.625v-10.65625c0-.34375.296874-.625.660156-.625zm0 0" fill="url(#g)"/><path d="m14.222656 2.109375c.367188 0 .660156.277344.660156.625v5.328125h-6.945312v-5.953125zm0 0" fill="url(#i)"/><path d="m1.652344 2.109375c-.363282 0-.660156.277344-.660156.625v5.328125h6.945312v-5.953125zm0 0" fill="url(#k)"/><path d="m1.652344 14.015625c-.363282 0-.660156-.277344-.660156-.625v-5.328125h6.945312v5.953125zm0 0" fill="url(#l)"/><path d="m4.328125 3.929688c-.128906-.128907-.339844-.128907-.46875 0-.128906.128906-.128906.335937 0 .46875l.9375.933593-.9375.9375c-.128906.128907-.128906.335938 0 .464844s.339844.128906.46875 0l1.167969-1.167969c.007812-.007812.015625-.015625.023437-.027344.105469-.128906.101563-.320312-.023437-.441406zm0 0" fill="#ececec" fill-opacity=".588235"/><path d="m1.652344 2.109375c-.363282 0-.660156.277344-.660156.625v.164063c0-.34375.296874-.625.660156-.625h12.570312c.367188 0 .660156.28125.660156.625v-.164063c0-.347656-.292968-.625-.660156-.625zm0 0" fill="#fff" fill-opacity=".392157"/><path d="m14.222656 14.015625c.367188 0 .660156-.277344.660156-.625v-5.328125h-6.945312v5.953125zm0 0" fill="url(#m)"/><path d="m1.652344 14.023438c-.363282 0-.660156-.28125-.660156-.625v-.167969c0 .347656.296874.625.660156.625h12.570312c.367188 0 .660156-.277344.660156-.625v.167969c0 .34375-.292968.625-.660156.625zm0 0" fill-opacity=".235294"/><path d="m1.984375 2.730469c-.203125 0-.371094.167969-.371094.371093v9.261719c0 .203125.167969.371094.371094.371094h11.90625c.207031 0 .371094-.167969.371094-.371094v-9.261719c0-.203124-.164063-.371093-.371094-.371093zm0 .078125h11.90625c.164063 0 .292969.132812.292969.292968v9.261719c0 .164063-.128906.292969-.292969.292969h-11.90625c-.160156 0-.292969-.128906-.292969-.292969v-9.261719c0-.160156.132813-.292968.292969-.292968zm0 0" fill="#212121"/><path d="m1.984375 2.816406c-.160156 0-.285156.128906-.285156.285156v9.261719c0 .160157.125.285157.285156.285157h11.90625c.160156 0 .289063-.125.289063-.285157v-9.261719c0-.15625-.128907-.285156-.289063-.285156zm0 .078125h11.90625c.117187 0 .210937.089844.210937.207031v9.261719c0 .117188-.09375.207031-.210937.207031h-11.90625c-.117187 0-.207031-.089843-.207031-.207031v-9.261719c0-.117187.089844-.207031.207031-.207031zm0 0" fill="#dedede" fill-opacity=".705882"/><path d="m52.869951-147.506445h402.211591c11.748878 0 21.122983 8.99914 21.122983 19.99809v340.967439c0 11.123938-9.374105 19.99809-21.122983 19.99809h-402.211591c-11.62389 0-21.122983-8.874152-21.122983-19.99809v-340.967439c0-10.99895 9.499093-19.99809 21.122983-19.99809zm0 0" fill="none" stroke="#212121" stroke-linecap="round" stroke-width="3" transform="matrix(.031253 0 0 .031253 0 6.719392)"/><path d="m11.109375 9.304688c-.128906-.128907-.339844-.128907-.46875 0-.128906.132812-.128906.339843 0 .46875l.9375.9375-.9375.933593c-.128906.128907-.128906.339844 0 .46875.128906.128907.339844.128907.46875 0l1.167969-1.171875.023437-.023437c.105469-.128907.097657-.320313-.023437-.441407zm0 0" fill="#ececec" fill-opacity=".588235"/></svg>

<?xml version="1.0" encoding="UTF-8"?>
<svg xmlns="http://www.w3.org/2000/svg" xmlns:xlink="http://www.w3.org/1999/xlink" width="16px" height="16px" viewBox="0 0 16 16" version="1.1">
<defs>
<linearGradient id="linear0" gradientUnits="userSpaceOnUse" x1="254" y1="233.5" x2="254" y2="254.666672" gradientTransform="matrix(0.031253,0,0,0.031253,-0.330766,6.719392)">
<stop offset="0" style="stop-color:rgb(0%,0%,0%);stop-opacity:0.27451;"/>
<stop offset="1" style="stop-color:rgb(0%,0%,0%);stop-opacity:0;"/>
</linearGradient>
<radialGradient id="radial0" gradientUnits="userSpaceOnUse" cx="450.908936" cy="189.579361" fx="450.908936" fy="189.579361" r="21.166656" gradientTransform="matrix(0.0000000870852,-0.0390662,-0.0703192,-0.0000000507693,26.726844,31.797666)">
<stop offset="0" style="stop-color:rgb(0%,0%,0%);stop-opacity:0.313726;"/>
<stop offset="0.222222" style="stop-color:rgb(0%,0%,0%);stop-opacity:0.27451;"/>
<stop offset="1" style="stop-color:rgb(0%,0%,0%);stop-opacity:0;"/>
</radialGradient>
<radialGradient id="radial1" gradientUnits="userSpaceOnUse" cx="450.908936" cy="189.579361" fx="450.908936" fy="189.579361" r="21.166656" gradientTransform="matrix(-0.0000000870852,0.0390662,0.0703192,0.0000000507693,-10.850327,-3.763739)">
<stop offset="0" style="stop-color:rgb(0%,0%,0%);stop-opacity:0.313726;"/>
<stop offset="0.222222" style="stop-color:rgb(0%,0%,0%);stop-opacity:0.27451;"/>
<stop offset="1" style="stop-color:rgb(0%,0%,0%);stop-opacity:0;"/>
</radialGradient>
<radialGradient id="radial2" gradientUnits="userSpaceOnUse" cx="450.908936" cy="189.579361" fx="450.908936" fy="189.579361" r="21.166656" gradientTransform="matrix(-0.0000000870852,-0.0390662,0.0703192,-0.0000000507693,-10.850327,31.797666)">
<stop offset="0" style="stop-color:rgb(0%,0%,0%);stop-opacity:0.313726;"/>
<stop offset="0.222222" style="stop-color:rgb(0%,0%,0%);stop-opacity:0.27451;"/>
<stop offset="1" style="stop-color:rgb(0%,0%,0%);stop-opacity:0;"/>
</radialGradient>
<radialGradient id="radial3" gradientUnits="userSpaceOnUse" cx="450.908936" cy="189.579361" fx="450.908936" fy="189.579361" r="21.166656" gradientTransform="matrix(0.0000000870852,0.0390662,-0.0703192,0.0000000507693,26.726843,-3.76374)">
<stop offset="0" style="stop-color:rgb(0%,0%,0%);stop-opacity:0.313726;"/>
<stop offset="0.222222" style="stop-color:rgb(0%,0%,0%);stop-opacity:0.27451;"/>
<stop offset="1" style="stop-color:rgb(0%,0%,0%);stop-opacity:0;"/>
</radialGradient>
<linearGradient id="linear1" gradientUnits="userSpaceOnUse" x1="307.62677" y1="-22.391003" x2="305.954529" y2="-141.414581" gradientTransform="matrix(0.0360368,0,0,0.0953132,-2.454603,15.588246)">
<stop offset="0" style="stop-color:rgb(25.882354%,25.882354%,25.882354%);stop-opacity:1;"/>
<stop offset="1" style="stop-color:rgb(38.039216%,38.039216%,38.039216%);stop-opacity:1;"/>
</linearGradient>
<linearGradient id="linear2" gradientUnits="userSpaceOnUse" x1="306.752686" y1="-16.485477" x2="305.954529" y2="-141.414581" gradientTransform="matrix(-0.0360368,0,0,0.0953132,18.331119,15.588246)">
<stop offset="0" style="stop-color:rgb(93.725491%,32.549021%,31.37255%);stop-opacity:1;"/>
<stop offset="1" style="stop-color:rgb(89.803922%,45.09804%,45.09804%);stop-opacity:1;"/>
</linearGradient>
<linearGradient id="linear3" gradientUnits="userSpaceOnUse" x1="306.752686" y1="-16.485477" x2="305.954529" y2="-141.414581" gradientTransform="matrix(0.0360368,0,0,0.0953131,-2.454603,15.588245)">
<stop offset="0" style="stop-color:rgb(95.686275%,26.274511%,21.176471%);stop-opacity:1;"/>
<stop offset="1" style="stop-color:rgb(93.725491%,32.549021%,31.37255%);stop-opacity:1;"/>
</linearGradient>
<linearGradient id="linear4" gradientUnits="userSpaceOnUse" x1="251.682175" y1="-141.414673" x2="251.682175" y2="-16.485561" gradientTransform="matrix(0.0360368,0,0,-0.0953132,-2.454603,0.538286)">
<stop offset="0" style="stop-color:rgb(93.725491%,32.549021%,31.37255%);stop-opacity:1;"/>
<stop offset="1" style="stop-color:rgb(89.803922%,45.09804%,45.09804%);stop-opacity:1;"/>
</linearGradient>
<linearGradient id="linear5" gradientUnits="userSpaceOnUse" x1="260.860596" y1="-141.414673" x2="260.860596" y2="-16.485558" gradientTransform="matrix(-0.0360368,0,0,-0.0953132,18.331119,0.538286)">
<stop offset="0" style="stop-color:rgb(95.686275%,26.274511%,21.176471%);stop-opacity:1;"/>
<stop offset="1" style="stop-color:rgb(93.725491%,32.549021%,31.37255%);stop-opacity:1;"/>
</linearGradient>
</defs>
<g id="surface1">
<path style=" stroke:none;fill-rule:nonzero;fill:url(#linear0);" d="M 2.316406 14.054688 L 13.5625 14.054688 L 13.5625 14.679688 L 2.316406 14.679688 Z M 2.316406 14.054688 "/>
<path style=" stroke:none;fill-rule:nonzero;fill:url(#radial0);" d="M 13.5625 14.015625 L 14.882812 14.015625 L 14.882812 13.355469 L 13.5625 13.355469 Z M 13.5625 14.015625 "/>
<path style=" stroke:none;fill-rule:nonzero;fill:url(#radial1);" d="M 2.316406 14.015625 L 0.992188 14.015625 L 0.992188 14.679688 L 2.316406 14.679688 Z M 2.316406 14.015625 "/>
<path style=" stroke:none;fill-rule:nonzero;fill:url(#radial2);" d="M 2.316406 14.015625 L 0.992188 14.015625 L 0.992188 13.355469 L 2.316406 13.355469 Z M 2.316406 14.015625 "/>
<path style=" stroke:none;fill-rule:nonzero;fill:url(#radial3);" d="M 13.5625 14.015625 L 14.882812 14.015625 L 14.882812 14.679688 L 13.5625 14.679688 Z M 13.5625 14.015625 "/>
<path style=" stroke:none;fill-rule:nonzero;fill:url(#linear1);" d="M 1.652344 2.109375 L 14.222656 2.109375 C 14.589844 2.109375 14.882812 2.390625 14.882812 2.734375 L 14.882812 13.390625 C 14.882812 13.738281 14.589844 14.015625 14.222656 14.015625 L 1.652344 14.015625 C 1.289062 14.015625 0.992188 13.738281 0.992188 13.390625 L 0.992188 2.734375 C 0.992188 2.390625 1.289062 2.109375 1.652344 2.109375 Z M 1.652344 2.109375 "/>
<path style=" stroke:none;fill-rule:nonzero;fill:url(#linear2);" d="M 14.222656 2.109375 C 14.589844 2.109375 14.882812 2.386719 14.882812 2.734375 L 14.882812 8.0625 L 7.9375 8.0625 L 7.9375 2.109375 Z M 14.222656 2.109375 "/>
<path style=" stroke:none;fill-rule:nonzero;fill:url(#linear3);" d="M 1.652344 2.109375 C 1.289062 2.109375 0.992188 2.386719 0.992188 2.734375 L 0.992188 8.0625 L 7.9375 8.0625 L 7.9375 2.109375 Z M 1.652344 2.109375 "/>
<path style=" stroke:none;fill-rule:nonzero;fill:url(#linear4);" d="M 1.652344 14.015625 C 1.289062 14.015625 0.992188 13.738281 0.992188 13.390625 L 0.992188 8.0625 L 7.9375 8.0625 L 7.9375 14.015625 Z M 1.652344 14.015625 "/>
<path style=" stroke:none;fill-rule:nonzero;fill:rgb(92.54902%,92.54902%,92.54902%);fill-opacity:0.588235;" d="M 4.328125 3.929688 C 4.199219 3.800781 3.988281 3.800781 3.859375 3.929688 C 3.730469 4.058594 3.730469 4.265625 3.859375 4.398438 L 4.796875 5.332031 L 3.859375 6.269531 C 3.730469 6.398438 3.730469 6.605469 3.859375 6.734375 C 3.988281 6.863281 4.199219 6.863281 4.328125 6.734375 L 5.496094 5.566406 C 5.503906 5.558594 5.511719 5.550781 5.519531 5.539062 C 5.625 5.410156 5.621094 5.21875 5.496094 5.097656 Z M 4.328125 3.929688 "/>
<path style=" stroke:none;fill-rule:nonzero;fill:rgb(100%,100%,100%);fill-opacity:0.392157;" d="M 1.652344 2.109375 C 1.289062 2.109375 0.992188 2.386719 0.992188 2.734375 L 0.992188 2.898438 C 0.992188 2.554688 1.289062 2.273438 1.652344 2.273438 L 14.222656 2.273438 C 14.589844 2.273438 14.882812 2.554688 14.882812 2.898438 L 14.882812 2.734375 C 14.882812 2.386719 14.589844 2.109375 14.222656 2.109375 Z M 1.652344 2.109375 "/>
<path style=" stroke:none;fill-rule:nonzero;fill:url(#linear5);" d="M 14.222656 14.015625 C 14.589844 14.015625 14.882812 13.738281 14.882812 13.390625 L 14.882812 8.0625 L 7.9375 8.0625 L 7.9375 14.015625 Z M 14.222656 14.015625 "/>
<path style=" stroke:none;fill-rule:nonzero;fill:rgb(0%,0%,0%);fill-opacity:0.235294;" d="M 1.652344 14.023438 C 1.289062 14.023438 0.992188 13.742188 0.992188 13.398438 L 0.992188 13.230469 C 0.992188 13.578125 1.289062 13.855469 1.652344 13.855469 L 14.222656 13.855469 C 14.589844 13.855469 14.882812 13.578125 14.882812 13.230469 L 14.882812 13.398438 C 14.882812 13.742188 14.589844 14.023438 14.222656 14.023438 Z M 1.652344 14.023438 "/>
<path style=" stroke:none;fill-rule:nonzero;fill:rgb(12.941177%,12.941177%,12.941177%);fill-opacity:1;" d="M 1.984375 2.730469 C 1.78125 2.730469 1.613281 2.898438 1.613281 3.101562 L 1.613281 12.363281 C 1.613281 12.566406 1.78125 12.734375 1.984375 12.734375 L 13.890625 12.734375 C 14.097656 12.734375 14.261719 12.566406 14.261719 12.363281 L 14.261719 3.101562 C 14.261719 2.898438 14.097656 2.730469 13.890625 2.730469 Z M 1.984375 2.808594 L 13.890625 2.808594 C 14.054688 2.808594 14.183594 2.941406 14.183594 3.101562 L 14.183594 12.363281 C 14.183594 12.527344 14.054688 12.65625 13.890625 12.65625 L 1.984375 12.65625 C 1.824219 12.65625 1.691406 12.527344 1.691406 12.363281 L 1.691406 3.101562 C 1.691406 2.941406 1.824219 2.808594 1.984375 2.808594 Z M 1.984375 2.808594 "/>
<path style=" stroke:none;fill-rule:nonzero;fill:rgb(87.058824%,87.058824%,87.058824%);fill-opacity:0.705882;" d="M 1.984375 2.816406 C 1.824219 2.816406 1.699219 2.945312 1.699219 3.101562 L 1.699219 12.363281 C 1.699219 12.523438 1.824219 12.648438 1.984375 12.648438 L 13.890625 12.648438 C 14.050781 12.648438 14.179688 12.523438 14.179688 12.363281 L 14.179688 3.101562 C 14.179688 2.945312 14.050781 2.816406 13.890625 2.816406 Z M 1.984375 2.894531 L 13.890625 2.894531 C 14.007812 2.894531 14.101562 2.984375 14.101562 3.101562 L 14.101562 12.363281 C 14.101562 12.480469 14.007812 12.570312 13.890625 12.570312 L 1.984375 12.570312 C 1.867188 12.570312 1.777344 12.480469 1.777344 12.363281 L 1.777344 3.101562 C 1.777344 2.984375 1.867188 2.894531 1.984375 2.894531 Z M 1.984375 2.894531 "/>
<path style="fill:none;stroke-width:3;stroke-linecap:round;stroke-linejoin:miter;stroke:rgb(12.941177%,12.941177%,12.941177%);stroke-opacity:1;stroke-miterlimit:4;" d="M 52.869951 -147.506445 L 455.081542 -147.506445 C 466.83042 -147.506445 476.204525 -138.507305 476.204525 -127.508355 L 476.204525 213.459084 C 476.204525 224.583022 466.83042 233.457174 455.081542 233.457174 L 52.869951 233.457174 C 41.246061 233.457174 31.746968 224.583022 31.746968 213.459084 L 31.746968 -127.508355 C 31.746968 -138.507305 41.246061 -147.506445 52.869951 -147.506445 Z M 52.869951 -147.506445 " transform="matrix(0.031253,0,0,0.031253,0,6.719392)"/>
<path style=" stroke:none;fill-rule:nonzero;fill:rgb(92.54902%,92.54902%,92.54902%);fill-opacity:0.588235;" d="M 11.109375 9.304688 C 10.980469 9.175781 10.769531 9.175781 10.640625 9.304688 C 10.511719 9.4375 10.511719 9.644531 10.640625 9.773438 L 11.578125 10.710938 L 10.640625 11.644531 C 10.511719 11.773438 10.511719 11.984375 10.640625 12.113281 C 10.769531 12.242188 10.980469 12.242188 11.109375 12.113281 L 12.277344 10.941406 C 12.285156 10.933594 12.292969 10.925781 12.300781 10.917969 C 12.40625 10.789062 12.398438 10.597656 12.277344 10.476562 Z M 11.109375 9.304688 "/>
</g>
</svg>
